X:1
T:Champion, The
R:jig 32
C:Trad. ed. Barry Callaghan
S:'Hard Core English' page 57B
O:England and USA
B:Hard Core English ISBN 978 085418 201 5
Z:PJHeadford 2008
M:6/8
L:1/8
Q:1/8=140
K:Dmaj
|:FBc dcB|fBc dcB|c^AF cAF|fgf edc|\
FBc dcB|fBc dcB|f3 f2e|dBB B3:|
|:A3 G3|FAd fdA|GAc ecA|FAd fdA|\
A3 G3|FAd fdA|GAc ecA|dAf d3:|]
